X:1
T:Title
%%score { ( 1 3 ) | ( 2 4 ) }
L:1/8
Q:1/4=94
M:4/4
K:Eb
V:1 treble nm="Grand Piano"
V:3 treble 
V:2 bass 
V:4 bass 
V:1
 G3 E AGFE | G F3- F2 z2 | F3 E GFEF | G6 z2 | G3 E AGFE | G F3- F2 z2 | F3 E GFFG | E6 z2 | %8
w: B.~E.~Warren * * * * *||||||||
 [DF]3 [DF] [Fd][Ec][DB][FA] | [EG] [GB]3- [GB]2 z2 | d3 B [=Af][Ad][Ae][EAc] | z2 A2 A4 | %12
w: ||||
 G3 E AGFE | [B,EG] [A,DF]3- [A,DF]2 z2 | [A,DF]3 [G,E] [B,EG][B,DF][A,DF][B,DG] | [G,E]6 z2 |] %16
w: ||||
V:2
 B,3 G, CB,A,G, | B, A,3- A,2 z2 | A,3 G, B,A,G,A, | B,6 z2 | B,3 G, CB,A,G, | B, A,3- A,2 z2 | %6
 A,3 G, B,A,A,B, | G,6 z2 | [B,,B,]3 [B,,B,] [B,,B,][B,,B,][B,,B,][B,,B,] | %9
 [E,B,] [E,E]3- [E,E]2 z2 | [B,A]3 [B,A][K:bass] [F,C][F,C][F,C]F, | z4 [B,F]4 | %12
 [E,B,E]3 [E,G,] [E,CE][E,B,E][E,A,E][E,G,] | B,, B,,3- B,,2 z2 | B,,3 B,, B,,B,,B,,B,, | E,6 z2 |] %16
V:3
 x8 | x8 | x8 | x8 | x8 | x8 | x8 | x8 | x8 | x8 | x8 | [DB]4 z4 | x8 | x8 | x8 | x8 |] %16
V:4
 x8 | x8 | x8 | x8 | x8 | x8 | x8 | x8 | x8 | x8 | x4[K:bass] x4 | B,,8 | x8 | x8 | x8 | x8 |] %16

